X:1
T:[ID 8-96]
T:[ID 8-96]
T:Bezeichnung standardisiert: Anglaise Angl.
T:Urheber unbekannt Datum in der hier transkribierten schriftlichen Quelle: 1792
C:Urheber unbekannt
C:Datum in der hier transkribierten schriftlichen Quelle: 1792
L:1/8
M:2/4
K:G
V:1 treble 
V:1
 G/F/G/A/ G/F/G/A/ | GccB | G/F/G/A/ G/F/G/A/ | Geed | G/F/G/A/ B/A/B/c/ | dgge | dccB | B2 A2 :: %8
 d/^c/d/e/ dd | edcB | c/B/c/d/ cB | dcBA | G/F/G/A/ B/A/B/c/ | dgfe | dccB | G2 G2 :| %16

